X: 3268
T: Mc RORY'S BREEKS
%R: jig
B: James Kerr "Merry Melodies" v.3 p.29 #268
Z: 2016 John Chambers <jc:trillian.mit.edu>
M: 6/8
L: 1/8
K: G
g |\
dBG GGG | BAB GGg | dBG ABd | e2A A2g |\
dBG GGG | BAB GGB | ABd edB | e2A A2 :|
|: g |\
gAg gfe | aAa agf | gag gfe | a2e e2g |\
gAg gfe | aAa agf | g2e dBd | e2A A2 :|

%%sep 1 1 500
%%sep 1 1 500

